X: 1
T: the Rose Tree #2
T: Leather Away the Wattle O
T: the Half Door
T: the Lisdoonvarna Polka
M: 2/4
L: 1/8
Q: 240
R: Polka
B: Richard Darsie's Traditional Tune Sourcebook
N: 4/4 in book; transcribed as 2/4 here
Z: Lorna LaVerne <Muse1950@aol.com>
K: D
B/c/ \
| dA FA |d2 dc/d/ | ed cd | ef gf/g/ |
| af/a/ g/f/e | dB AF | GB A/B/A/G/ | FD D :|
e \
|: f2 fe/f/ | g2 ge | f2 fa | gf ef/g/ |
| af/a/ g/f/e | dB AF | GB A/B/A/G/ FD D :|
